!!!!SEGMENT: pl-sa--233-a-vi-37--002_bach-johann-christian--sinphonia-ex-d-andante.krn
!!!cenid: 17xx:1827
!!!COM: Bach, Johann Christian
!!!COM-rismid: pe2530
!!!CDT: 1735/09/05-1782/01/01
!!!CNT: German
!!!OPR: Sinphonia ex D
!!!OTL: Andante
!!!PDT:
!!!AGN: Secular
!!!SMS-siglum: PL-SA
!!!SMS-shelfmark: 233/A VI 37
!!!SMS-shelfwork: 002 M
!!!SMS-variant:
!!!SMS-altvar:
!!!NIFC-rismid: 1001035158
!!!URL-scan: http://bc.bdsandomierz.pl/dlibra/publication/1587/edition/1555/content
!!!ONB-nifc: UWAGA: części Sinphonii: 1. Allegro di molto, 2. Andante, 3. Presto
!!!key: G
**kern	**dynam	**kern	**dynam	**kern	**dynam	**kern	**kern	**kern	**kern	**kern
*part8	*part8	*part7	*part7	*part6	*part6	*part5	*part4	*part3	*part2	*part1
*staff8	*	*staff7	*	*staff6	*	*staff5	*staff4	*staff3	*staff2	*staff1
*I"Basso	*	*I"Alto Viola	*	*I"Violino Secundo	*	*I"Violino Primo	*I"Cornu Secondo	*I"Cornu Primo in #D	*I"Oboe Secundo	*I"Oboe Primo
*I'cb	*	*I'a-vla	*	*I'vl 2	*	*I'vl 1	*I'cor 2 in D	*I'cor 1 in D	*I'ob 2	*I'ob 1
*ICstr	*	*ICstr	*	*ICstr	*	*ICstr	*ICbras	*ICbras	*ICww	*ICww
*Icbass	*	*Iviola	*	*Ivioln	*	*Ivioln	*Icor	*Icor	*Ioboe	*Ioboe
*clefF4	*	*clefC3	*	*clefG2	*	*clefG2	*clefG2	*clefG2	*clefG2	*clefG2
*	*	*	*	*	*	*	*ITrd6c10	*ITrd6c10	*	*
*k[f#]	*	*k[f#c#]	*	*k[f#]	*	*k[f#]	*k[f#]	*k[f#]	*k[f#]	*k[f#]
*G:	*	*G:	*	*G:	*	*G:	*G:	*G:	*G:	*G:
*M2/4	*	*M2/4	*	*M2/4	*	*M2/4	*M2/4	*M2/4	*M2/4	*M2/4
=1	=1	=1	=1	=1	=1	=1	=1	=1	=1	=1
*	*	*	*	*	*	*2\right	*	*	*	*
*4\right	*	*4\right	*	*4\right	*	*4\right	*	*	*4\right	*4\right
*8\right	*	*8\right	*	*8\right	*	*8\right	*	*	*8\right	*8\right
*16\right	*	*16\right	*	*16\right	*	*16\right	*	*	*16\right	*16\right
*	*	*Xtuplet	*	*Xtuplet	*	*Xtuplet	*	*	*	*
!!LO:TX:t=P:problem: all\right	!	!	!	!	!	!	!	!	!	!
!	!	!LO:TX:t=P:problem:inna tonacja	!	!	!	!	!	!	!	!
!LO:TX:a:B:t=Andante	!	!LO:TX:a:B:t=Andante	!	!LO:TX:a:B:t=Andante	!LO:DY:a	!	!LO:TX:a:B:t=Andante Tacet	!LO:TX:a:B:t=Andante Tacet	!LO:TX:a:B:t=Andante	!LO:TX:a:B:t=Andante
8r	.	8r	.	4d/	p	4.d/	2ryy	2ryy	2r	2r
!	!	!	!LO:DY:a	!	!	!	!	!	!	!
8G\L	.	8B/L	p	.	.	.	.	.	.	.
8F#\	.	8A/	.	4B/	.	.	.	.	.	.
8G\J	.	8B/J	.	.	.	8g/	.	.	.	.
=2	=2	=2	=2	=2	=2	=2	=2	=2	=2	=2
8r	.	8r	.	4B/	.	4g/	2ryy	2ryy	2r	2r
!	!	!	!LO:DY:a	!	!	!	!	!	!	!
8D\L	.	8d\L	f	.	.	.	.	.	.	.
8D\	.	8d\	.	8A/	.	8f#/	.	.	.	.
8D\J	.	8d\J	.	8r	.	8r	.	.	.	.
=3	=3	=3	=3	=3	=3	=3	=3	=3	=3	=3
8r	.	8r	.	4.d/	.	(4.d/	2ryy	2ryy	2r	2r
!	!	!	!LO:DY:a	!	!	!	!	!	!	!
8G\L	.	8B/L	p	.	.	.	.	.	.	.
8F#\	.	8A/	.	.	.	.	.	.	.	.
8G\J	.	8B/J	.	8g/	.	8b\)	.	.	.	.
=4	=4	=4	=4	=4	=4	=4	=4	=4	=4	=4
8r	.	8r	.	4g/	.	(4b\	2ryy	2ryy	2r	2r
!	!	!	!LO:DY:a	!	!	!	!	!	!	!
8D\L	.	8d\L	f	.	.	.	.	.	.	.
8D\	.	8d\	.	8f#/	.	8a\)	.	.	.	.
8D\J	.	8d\J	.	8r	.	8r	.	.	.	.
=5	=5	=5	=5	=5	=5	=5	=5	=5	=5	=5
8r	.	8r	.	8r	.	16gg\LL	2ryy	2ryy	2r	2r
.	.	.	.	.	.	16dd\JJ	.	.	.	.
8G\L	.	8g\L	.	8b\L	.	4.dd\	.	.	.	.
.	.	.	.	16qqdd/	.	.	.	.	.	.
8F#\	.	8a\	.	8cc\	.	.	.	.	.	.
8G\J	.	8g\J	.	8b\J	.	.	.	.	.	.
=6	=6	=6	=6	=6	=6	=6	=6	=6	=6	=6
8r	.	8r	.	8r	.	16gg\LL	2ryy	2ryy	2r	2r
.	.	.	.	.	.	16dd\JJ	.	.	.	.
8G\L	.	8g\L	.	8b\L	.	4.dd\	.	.	.	.
.	.	.	.	16qqdd/	.	.	.	.	.	.
8F#\	.	8a\	.	8cc\	.	.	.	.	.	.
8G\J	.	8g\J	.	8b\J	.	.	.	.	.	.
=7	=7	=7	=7	=7	=7	=7	=7	=7	=7	=7
8BB/L	.	8g\L	.	24bb\LL	.	24bb\LL	2ryy	2ryy	2r	2r
.	.	.	.	24aa\	.	24aa\	.	.	.	.
.	.	.	.	24gg\JJ	.	24gg\JJ	.	.	.	.
8BB/	.	8g\	.	24ff#\LL	.	24ff#\LL	.	.	.	.
.	.	.	.	24ee\	.	24ee\	.	.	.	.
.	.	.	.	24dd\JJ	.	24dd\JJ	.	.	.	.
8C/	.	8g\	.	24ee\LL	.	24ee\LL	.	.	.	.
.	.	.	.	24dd\	.	24dd\	.	.	.	.
.	.	.	.	24cc\JJ	.	24cc\JJ	.	.	.	.
8C#X/J	.	8d\J	.	24b\LL	.	24b\LL	.	.	.	.
.	.	.	.	24a\	.	24a\	.	.	.	.
.	.	.	.	24g\JJ	.	24g\JJ	.	.	.	.
=8	=8	=8	=8	=8	=8	=8	=8	=8	=8	=8
4D/	.	4d\	.	(24f#/LL	.	(24f#/LL	2ryy	2ryy	2r	2r
.	.	.	.	24a/	.	24a/	.	.	.	.
.	.	.	.	24dd/J)	.	24dd/J)	.	.	.	.
.	.	.	.	8d/J	.	8d/J	.	.	.	.
16D/LL	.	16d\LL	.	4r	.	4r	.	.	.	.
16C#X/	.	16c#\	.	.	.	.	.	.	.	.
16BB/	.	16B\	.	.	.	.	.	.	.	.
16AA/JJ	.	16A\JJ	.	.	.	.	.	.	.	.
=9	=9	=9	=9	=9	=9	=9	=9	=9	=9	=9
!LO:TX:t=P:problem:mixed beam	!	!	!	!	!	!	!	!	!	!
8GG/L	.	8r	.	4.d/	.	4.d/	2ryy	2ryy	2r	2r
!	!LO:DY:a	!	!	!	!	!	!	!	!	!
8G/	p	8B/L	.	.	.	.	.	.	.	.
8F#/	.	8A/	.	.	.	.	.	.	.	.
8G/J	.	8B/J	.	8B/	.	8g/	.	.	.	.
=10	=10	=10	=10	=10	=10	=10	=10	=10	=10	=10
8r	.	8r	.	4B/	.	4g/	2ryy	2ryy	2r	2r
8D\L	.	8d`\L	.	.	.	.	.	.	.	.
8D\	.	8d`\	.	8A/	.	8f#/	.	.	.	.
8D\J	.	8d`\J	.	8r	.	8r	.	.	.	.
!	!	!	!	!	!	!LO:LB:g=original	!	!	!	!
=11	=11	=11	=11	=11	=11	=11	=11	=11	=11	=11
8r	.	8r	.	4.d/	.	4.d/	2ryy	2ryy	2r	2r
8G\L	.	8B/L	.	.	.	.	.	.	.	.
8F#\	.	8A/	.	.	.	.	.	.	.	.
8G\J	.	8B/J	.	8g/	.	8b\	.	.	.	.
=12	=12	=12	=12	=12	=12	=12	=12	=12	=12	=12
8r	.	8r	.	4g/	.	4b\	2ryy	2ryy	2r	2r
8D\L	.	8d`\L	.	.	.	.	.	.	.	.
8D\	.	8d`\	.	8f#/	.	8a\	.	.	.	.
8D\J	.	8d`\J	.	8r	.	8r	.	.	.	.
!	!	!	!	!LO:LB:g=original	!	!	!	!	!	!
!LO:LB:g=original	!	!	!	!	!	!	!	!	!	!
=13	=13	=13	=13	=13	=13	=13	=13	=13	=13	=13
8r	.	8r	.	8r	.	16gg\LL	2ryy	2ryy	2r	2r
.	.	.	.	.	.	16dd\JJ	.	.	.	.
8G\L	.	8g\L	.	8b\L	.	4.dd\	.	.	.	.
.	.	.	.	16qqdd/	.	.	.	.	.	.
8F#\	.	8a\	.	8cc\	.	.	.	.	.	.
8G\J	.	8g\J	.	8b\J	.	.	.	.	.	.
!	!	!LO:LB:g=original	!	!	!	!	!	!	!	!
=14	=14	=14	=14	=14	=14	=14	=14	=14	=14	=14
!	!	!LO:TX:t=P:problem:takt niewidoczny (uszkodzone źródło)	!	!	!	!	!	!	!	!
8r	.	8ryy	.	8r	.	16gg\LL	2ryy	2ryy	2r	2r
.	.	.	.	.	.	16dd\JJ	.	.	.	.
8G\L	.	8g\Lyy	.	8b\L	.	4.dd\	.	.	.	.
.	.	.	.	16qqdd/	.	.	.	.	.	.
8F#\	.	8a\yy	.	8cc\	.	.	.	.	.	.
8G\J	.	8g\Jyy	.	8b\J	.	.	.	.	.	.
=15	=15	=15	=15	=15	=15	=15	=15	=15	=15	=15
8BB/L	.	8g\L	.	24bb\LL	.	24bb\LL	2ryy	2ryy	2r	2r
.	.	.	.	24aa\	.	24aa\	.	.	.	.
.	.	.	.	24gg\JJ	.	24gg\JJ	.	.	.	.
8BB/	.	8g\	.	24ff#\LL	.	24ff#\LL	.	.	.	.
.	.	.	.	24ee\	.	24ee\	.	.	.	.
.	.	.	.	24dd\JJ	.	24dd\JJ	.	.	.	.
!	!	!	!LO:DY:t=fo	!	!	!	!	!	!	!
!	!	!	!LO:DY:a	!	!	!	!	!	!	!
8C/	.	8g\	f	24ee\LL	.	24ee\LL	.	.	.	.
.	.	.	.	24dd\	.	24dd\	.	.	.	.
.	.	.	.	24cc\JJ	.	24cc\JJ	.	.	.	.
8D/J	.	8d\J	.	24a/LL	.	24a/LL	.	.	.	.
.	.	.	.	24g/	.	24g/	.	.	.	.
.	.	.	.	24f#/JJ	.	24f#/JJ	.	.	.	.
=16	=16	=16	=16	=16	=16	=16	=16	=16	=16	=16
4GG/	.	24B\LL	.	24g/LL	.	24g/LL	2ryy	2ryy	2r	2r
.	.	24e\	.	24e/	.	24e/	.	.	.	.
.	.	24d\JJ	.	24d/JJ	.	24d/JJ	.	.	.	.
.	.	24c#/LL	.	24c/LL	.	24c/LL	.	.	.	.
.	.	24B/	.	24B/	.	24B/	.	.	.	.
.	.	24A/JJ	.	24A/JJ	.	24A/JJ	.	.	.	.
4r	.	8G/	.	8G/	.	8G/	.	.	.	.
.	.	8r	.	8r	.	8r	.	.	.	.
=17	=17	=17	=17	=17	=17	=17	=17	=17	=17	=17
!	!	!	!LO:DY:a	!	!	!	!	!	!	!
8G\	.	8g\	p	8gg\L	.	8bb\L	2ryy	2ryy	2r	2r
8r	.	8r	.	8ee\J	.	8gg\J	.	.	.	.
8G\	.	8g\	.	8r	.	8r	.	.	.	.
8r	.	8r	.	8b\	.	8ee\	.	.	.	.
=18	=18	=18	=18	=18	=18	=18	=18	=18	=18	=18
!LO:TX:a:t=1	!	!	!	!	!	!	!	!	!	!
2r	.	8G/	.	8g/L	.	8b/L	2ryy	2ryy	16gg\LL	16bb\LL
.	.	.	.	.	.	.	.	.	16ee\	16gg\
.	.	8r	.	8d/J	.	8g/J	.	.	16dd#X\	16ff#\
.	.	.	.	.	.	.	.	.	16ee\JJ	16gg\JJ
.	.	8G/	.	8B/	.	8e/	.	.	16dd#\LL	16ff#\LL
.	.	.	.	.	.	.	.	.	16ee\	16gg\
.	.	8r	.	8r	.	8r	.	.	16gg\	16bb\
.	.	.	.	.	.	.	.	.	16ee\JJ	16gg\JJ
=19	=19	=19	=19	=19	=19	=19	=19	=19	=19	=19
8D\	.	8d\	.	8ff#\L	.	8aa\L	2ryy	2ryy	8ff#\	8aa\
8r	.	8r	.	8dd\J	.	8ff#\J	.	.	8r	8r
8D\	.	8d\	.	8r	.	8r	.	.	4r	4r
8r	.	8r	.	8a/	.	8dd\	.	.	.	.
=20	=20	=20	=20	=20	=20	=20	=20	=20	=20	=20
2r	.	8d\	.	8f#/L	.	8a/L	2ryy	2ryy	16ff#\LL	16aa\LL
.	.	.	.	.	.	.	.	.	16dd\	16ff#\
.	.	8r	.	8d/J	.	8f#/J	.	.	16cc#X\	16ee\
.	.	.	.	.	.	.	.	.	16dd\JJ	16ff#\JJ
.	.	8d\	.	8A/	.	8d/	.	.	16ff#\LL	16ee\LL
.	.	.	.	.	.	.	.	.	16dd\	16ff#\
.	.	8r	.	8r	.	8r	.	.	16cc#\	16aa\
.	.	.	.	.	.	.	.	.	16dd\JJ	16ff#\JJ
!	!	!	!	!	!	!LO:LB:g=original	!	!	!	!
=21	=21	=21	=21	=21	=21	=21	=21	=21	=21	=21
8AA/	.	8A/	.	8g/	.	8cc#X\	2ryy	2ryy	8ee\	8ccc#X\
8r	.	8r	.	4g/	.	4cc#\	.	.	4ee\	4ccc#\
8AA/	.	8A/	.	.	.	.	.	.	.	.
8r	.	8r	.	8f#/	.	8dd\	.	.	8ff#\	8ddd\
=22	=22	=22	=22	=22	=22	=22	=22	=22	=22	=22
8AA/	.	8A/	.	8e/	.	8cc#X\	2ryy	2ryy	8gg\	8ccc#X\
8r	.	8r	.	4e/	.	4cc#\	.	.	4gg\	4ccc#\
8AA/	.	8A/	.	.	.	.	.	.	.	.
8r	.	8r	.	8f#/	.	8dd\	.	.	8ff#\	8ddd\
!	!	!	!	!LO:LB:g=original	!	!	!	!	!	!
=23	=23	=23	=23	=23	=23	=23	=23	=23	=23	=23
!	!	!	!	!	!	!LO:TX:t=P:problem:2\right:global	!	!	!LO:TX:a:t=4	!LO:TX:a:t=4
8G\L	.	(8g\L	.	8g/L	.	2b\	2ryy	2ryy	2r	2r
8F#\	.	8f#\	.	8d/	.	.	.	.	.	.
8E\	.	8e\	.	8g/	.	.	.	.	.	.
8D\J	.	8d\J)	.	8f#/J	.	.	.	.	.	.
=24	=24	=24	=24	=24	=24	=24	=24	=24	=24	=24
8C#X\L	.	(8c#X\L	.	8e/	.	8a\L	2ryy	2ryy	2r	2r
.	.	.	.	.	.	8qqbb/	.	.	.	.
8C#\	.	8e\	.	4a/	.	8aa\	.	.	.	.
.	.	.	.	.	.	8qqgg/	.	.	.	.
8D\	.	8f#\	.	.	.	8ff#\	.	.	.	.
.	.	.	.	.	.	8qqee/	.	.	.	.
8F#\J	.	8a\J)	.	8a/	.	8dd\J	.	.	.	.
=25	=25	=25	=25	=25	=25	=25	=25	=25	=25	=25
!LO:TX:t=P:problem:mixed beam	!	!	!	!	!	!	!	!	!	!
8G\L	.	8d\L	.	16a/LL	.	16cc#X\LL	2ryy	2ryy	2r	2r
.	.	.	.	16g/	.	16a\	.	.	.	.
8E\	.	8f#\J	.	16b/	.	16gg\	.	.	.	.
.	.	.	.	16g/JJ	.	16ee\JJ	.	.	.	.
8A\	.	16e\LL	.	16g/LL	.	16ee\LL	.	.	.	.
.	.	16f#\	.	16f#/	.	16dd\	.	.	.	.
8AA\J	.	16f#\	.	16f#/	.	16dd\	.	.	.	.
.	.	16g\JJ	.	16e/JJ	.	16cc#\JJ	.	.	.	.
!LO:LB:g=original	!	!	!	!	!	!	!	!	!	!
=26	=26	=26	=26	=26	=26	=26	=26	=26	=26	=26
!	!	!LO:TX:t=P:problem:takt niewidoczny (uszkodzone źródło)	!	!	!	!	!	!	!	!
8D\L	.	4f#\	.	16f#/LL	.	16dd\LL	2ryy	2ryy	2r	2r
.	.	.	.	16a/J	.	16a\J	.	.	.	.
8D\	.	.	.	8a/J	.	8a\J	.	.	.	.
8F#\	.	4ryy	.	4r	.	4r	.	.	.	.
8D\J	.	.	.	.	.	.	.	.	.	.
!	!	!LO:LB:g=original	!	!	!	!	!	!	!	!
=27	=27	=27	=27	=27	=27	=27	=27	=27	=27	=27
*	*	*k[f#]	*	*	*	*	*	*	*	*
8AA/	.	8A/	.	8e/	.	8cc#X\	2ryy	2ryy	8gg\	8ccc#X\
8r	.	8r	.	4e/	.	4cc#\	.	.	4gg\	4ccc#\
8AA/	.	8A/	.	.	.	.	.	.	.	.
8r	.	8r	.	8f#/	.	8dd\	.	.	8ff#\	8ddd\
=28	=28	=28	=28	=28	=28	=28	=28	=28	=28	=28
!	!	!	!	!	!	!LO:SIC:s=8cc#	!	!	!	!
8AA/	.	8A/	.	8g/	.	8cc\	2ryy	2ryy	8ee\	8ccc#X\
!	!	!	!	!	!	!LO:SIC:s=4cc#	!	!	!	!
8r	.	8r	.	4g/	.	4cc\	.	.	4ee\	4ccc#\
8AA/	.	8A/	.	.	.	.	.	.	.	.
8r	.	8r	.	8f#/	.	8dd\	.	.	8ff#\	8ddd\
=29	=29	=29	=29	=29	=29	=29	=29	=29	=29	=29
.	.	.	.	.	.	8qqcc/	.	.	.	.
8G\L	.	(8g\L	.	8g/L	.	2b\	2ryy	2ryy	2r	2r
8F#\	.	8f#\	.	8d/	.	.	.	.	.	.
8E\	.	8e\	.	8g/	.	.	.	.	.	.
8D\J	.	8d\J)	.	8f#/J	.	.	.	.	.	.
=30	=30	=30	=30	=30	=30	=30	=30	=30	=30	=30
8C#X\L	.	(8c#X\L	.	8e/	.	8a\L	2ryy	2ryy	2r	2r
.	.	.	.	.	.	8qqbb/	.	.	.	.
8C#\	.	8e\	.	4a/	.	8aa\	.	.	.	.
.	.	.	.	.	.	8qqgg/	.	.	.	.
8E\	.	8f#\	.	.	.	8ff#\	.	.	.	.
.	.	.	.	.	.	8qqee/	.	.	.	.
8G\J	.	8g\J)	.	8a\	.	8dd\J	.	.	.	.
=31	=31	=31	=31	=31	=31	=31	=31	=31	=31	=31
!LO:TX:t=P:problem:mixed beam	!	!	!	!	!	!	!	!	!	!
8G\L	.	8d\L	.	16a/LL	.	16cc#X\LL	2ryy	2ryy	2r	2r
.	.	.	.	16g/	.	16a\	.	.	.	.
8E\	.	8e\J	.	16b/	.	16gg\	.	.	.	.
.	.	.	.	16g/JJ	.	16ee\JJ	.	.	.	.
8A\	.	(16e\LL	.	16g/LL	.	16ee\LL	.	.	.	.
.	.	16f#\	.	16f#/	.	16dd\	.	.	.	.
8AA\J	.	16f#\	.	16f#/	.	16dd\	.	.	.	.
.	.	16g\JJ)	.	16e/JJ	.	16cc#\JJ	.	.	.	.
!	!	!	!	!	!	!LO:LB:g=original	!	!	!	!
=32	=32	=32	=32	=32	=32	=32	=32	=32	=32	=32
*tremolo	*	*	*	*	*	*	*	*	*	*
8D\L	.	4.g\	.	4e/	.	4cc#X\	2ryy	2ryy	2r	2r
8D\	.	.	.	.	.	.	.	.	.	.
8D\	.	.	.	8f#/	.	8dd\	.	.	.	.
8D\J	.	8f#\	.	8r	.	8r	.	.	.	.
*Xtremolo	*	*	*	*	*	*	*	*	*	*
=33	=33	=33	=33	=33	=33	=33	=33	=33	=33	=33
8r	.	8r	.	4.d/	.	4.d/	2ryy	2ryy	2r	2r
8G\L	.	8B/L	.	.	.	.	.	.	.	.
8F#\	.	8A/	.	.	.	.	.	.	.	.
!	!	!	!	!	!LO:DY:t=pi.	!	!	!	!	!
!	!	!	!	!	!LO:DY:a	!	!	!	!	!
8G\J	.	8B/J	.	8B/	p	8g/	.	.	.	.
=34	=34	=34	=34	=34	=34	=34	=34	=34	=34	=34
8r	.	8r	.	4B/	.	4g/	2ryy	2ryy	2r	2r
8D\L	.	8d\L	.	.	.	.	.	.	.	.
8D\	.	8d\	.	8A/	.	8f#/	.	.	.	.
8D\J	.	8d\J	.	8r	.	8r	.	.	.	.
!	!	!	!	!LO:LB:g=original	!	!	!	!	!	!
=35	=35	=35	=35	=35	=35	=35	=35	=35	=35	=35
8r	.	8r	.	4.d/	.	4.d/	2ryy	2ryy	2r	2r
8G\L	.	8B/L	.	.	.	.	.	.	.	.
8F#\	.	8A/	.	.	.	.	.	.	.	.
8G\J	.	8B/J	.	8g/	.	8b\	.	.	.	.
=36	=36	=36	=36	=36	=36	=36	=36	=36	=36	=36
8r	.	8r	.	4g/	.	4b\	2ryy	2ryy	2r	2r
8D\L	.	8d\L	.	.	.	.	.	.	.	.
8D\	.	8d\	.	8f#/	.	8a\	.	.	.	.
8D\J	.	8d\J	.	8r	.	8r	.	.	.	.
=37	=37	=37	=37	=37	=37	=37	=37	=37	=37	=37
8r	.	8r	.	8r	.	16gg\LL	2ryy	2ryy	2r	2r
.	.	.	.	.	.	16dd\JJ	.	.	.	.
8G\L	.	8g\L	.	8b\L	.	4.dd\	.	.	.	.
.	.	.	.	8qqdd/	.	.	.	.	.	.
8F#\	.	8a\	.	8cc\	.	.	.	.	.	.
8G\J	.	8g\J	.	8b\J	.	.	.	.	.	.
=38	=38	=38	=38	=38	=38	=38	=38	=38	=38	=38
8r	.	8r	.	8r	.	16gg\LL	2ryy	2ryy	2r	2r
.	.	.	.	.	.	16dd\JJ	.	.	.	.
8G\L	.	8g\L	.	8b\L	.	4.dd\	.	.	.	.
.	.	.	.	8qqdd/	.	.	.	.	.	.
8F#\	.	8a\	.	8cc\	.	.	.	.	.	.
8G\J	.	8g\J	.	8b\J	.	.	.	.	.	.
!LO:LB:g=original	!	!	!	!	!	!	!	!	!	!
=39	=39	=39	=39	=39	=39	=39	=39	=39	=39	=39
8BB/L	.	8g\L	.	24bb\LL	.	24bb\LL	2ryy	2ryy	2r	2r
.	.	.	.	24aa\	.	24aa\	.	.	.	.
.	.	.	.	24gg\JJ	.	24gg\JJ	.	.	.	.
8BB/	.	8g\	.	24ff#\LL	.	24ff#\LL	.	.	.	.
.	.	.	.	24ee\	.	24ee\	.	.	.	.
.	.	.	.	24dd\JJ	.	24dd\JJ	.	.	.	.
8C/	.	8g\	.	24ee\LL	.	24ee\LL	.	.	.	.
.	.	.	.	24dd\	.	24dd\	.	.	.	.
.	.	.	.	24cc\JJ	.	24cc\JJ	.	.	.	.
8C#X/J	.	8g\J	.	24b\LL	.	24b\LL	.	.	.	.
.	.	.	.	24a\	.	24a\	.	.	.	.
.	.	.	.	24g\JJ	.	24g\JJ	.	.	.	.
!	!	!LO:LB:g=original	!	!	!	!	!	!	!	!
=40	=40	=40	=40	=40	=40	=40	=40	=40	=40	=40
4D/	.	4d\	.	24f#/LL	.	24f#/LL	2ryy	2ryy	2r	2r
.	.	.	.	24a/	.	24a/	.	.	.	.
.	.	.	.	24cc/J	.	24cc/J	.	.	.	.
.	.	.	.	8d/J	.	8d/J	.	.	.	.
16D/LL	.	16d\LL	.	4r	.	4r	.	.	.	.
16Cn/	.	16c\	.	.	.	.	.	.	.	.
16BB/	.	16B\	.	.	.	.	.	.	.	.
16AA/JJ	.	16A\JJ	.	.	.	.	.	.	.	.
=41	=41	=41	=41	=41	=41	=41	=41	=41	=41	=41
!LO:TX:t=P:problem:mixed beam	!	!	!	!	!	!	!	!	!	!
8GG/L	.	8G/L	.	4.d/	.	4.d/	2ryy	2ryy	4.dd\	4.dd\
8G/	.	8B/	.	.	.	.	.	.	.	.
8F#/	.	8A/	.	.	.	.	.	.	.	.
8G/J	.	8B/J	.	8B/	.	8g/	.	.	8b\	8gg\
=42	=42	=42	=42	=42	=42	=42	=42	=42	=42	=42
8r	.	8r	.	4B/	.	4.g/	2ryy	2ryy	4b\	4gg\
8D\L	.	8d\L	.	.	.	.	.	.	.	.
8D\	.	8d\	.	8A/	.	.	.	.	8a\	8ff#\
8D\J	.	8d\J	.	8r	.	8f#/	.	.	8r	8r
!	!	!	!	!	!	!	!	!	!	!LO:LB:g=original
=43	=43	=43	=43	=43	=43	=43	=43	=43	=43	=43
8r	.	8r	.	4.d/	.	4.d/	2ryy	2ryy	4.dd\	4.dd\
8G\L	.	8B/L	.	.	.	.	.	.	.	.
8F#\	.	8A/	.	.	.	.	.	.	.	.
8G\J	.	8B/J	.	8g/	.	8b\	.	.	8gg\	8bb\
!	!	!	!	!	!	!	!	!	!LO:LB:g=original	!
=44	=44	=44	=44	=44	=44	=44	=44	=44	=44	=44
8r	.	8r	.	4g/	.	4.b\	2ryy	2ryy	4gg\	4bb\
8D\L	.	8d\L	.	.	.	.	.	.	.	.
8D\	.	8d\	.	8f#/	.	.	.	.	8ff#\	8aa\
8D\J	.	8d\J	.	8r	.	8a\	.	.	8r	8r
!	!	!	!	!	!	!LO:LB:g=original	!	!	!	!
=45	=45	=45	=45	=45	=45	=45	=45	=45	=45	=45
8r	.	8r	.	8r	.	16gg\LL	2ryy	2ryy	8r	8r
.	.	.	.	.	.	16dd\JJ	.	.	.	.
8G\L	.	8g\L	.	8b\L	.	4.dd\	.	.	8g/L	8b\L
.	.	.	.	8qqdd/	.	.	.	.	.	8qqdd/
8F#\	.	8a\	.	8cc\	.	.	.	.	8a/	8cc\
8G\J	.	8g\J	.	8b\J	.	.	.	.	8g/J	8b\J
!	!	!	!	!LO:LB:g=original	!	!	!	!	!	!
=46	=46	=46	=46	=46	=46	=46	=46	=46	=46	=46
8r	.	8r	.	8r	.	16gg\LL	2ryy	2ryy	8r	8r
.	.	.	.	.	.	16dd\JJ	.	.	.	.
8G\L	.	8g\L	.	8b\L	.	4.dd\	.	.	8g/L	8b\L
.	.	.	.	8qqdd/	.	.	.	.	.	8qqdd/
8F#\	.	8a\	.	8cc\	.	.	.	.	8a/	8cc\
8G\J	.	8g\J	.	8b\J	.	.	.	.	8g/J	8b\J
=47	=47	=47	=47	=47	=47	=47	=47	=47	=47	=47
8BB/L	.	8g\L	.	24bb\LL	.	24bb\LL	2ryy	2ryy	2r	2r
.	.	.	.	24aa\	.	24aa\	.	.	.	.
.	.	.	.	24gg\JJ	.	24gg\JJ	.	.	.	.
8BB/	.	8g\	.	24ff#\LL	.	24ff#\LL	.	.	.	.
.	.	.	.	24ee\	.	24ee\	.	.	.	.
.	.	.	.	24dd\JJ	.	24dd\JJ	.	.	.	.
8C/	.	8g\	.	24ee\LL	.	24ee\LL	.	.	.	.
.	.	.	.	24dd\	.	24dd\	.	.	.	.
.	.	.	.	24cc\JJ	.	24cc\JJ	.	.	.	.
8D/J	.	8c#X\J	.	24a/LL	.	24a/LL	.	.	.	.
.	.	.	.	24g/	.	24g/	.	.	.	.
.	.	.	.	24f#/JJ	.	24f#/JJ	.	.	.	.
=48	=48	=48	=48	=48	=48	=48	=48	=48	=48	=48
8G\	.	8B/	.	8g/L	.	8g/L	2ryy	2ryy	8r	8r
8r	.	8r	.	8B/	.	8g/	.	.	8gg\L	(8gg\L
4r	.	4r	.	8c/	.	8a/	.	.	8ff#\	8aa\
.	.	.	.	8d/J	.	8b/J	.	.	8ffn\J	8bb\J)
=49	=49	=49	=49	=49	=49	=49	=49	=49	=49	=49
8r	.	8c\L	.	8e/	.	8cc\	2ryy	2ryy	8ee\L	8ccc\L
8C/L	.	8c\	.	16ee\LL	.	16gg\LL	.	.	(16ee\L	16gg\L
.	.	.	.	16dd\JJ	.	16ee\JJ	.	.	16cc\JJ)	16ee\JJ
8D/	.	8d\	.	(16cc\LL	.	16ee\LL	.	.	(16cc\LL	(16ee\LL
.	.	.	.	16b\)	.	16dd\	.	.	16b\)	16dd\)
8D/J	.	8d\J	.	(16b\	.	16dd\	.	.	(16b\	(16dd\
.	.	.	.	16a\JJ)	.	16cc\JJ	.	.	16a\JJ)	16cc\JJ)
=50	=50	=50	=50	=50	=50	=50	=50	=50	=50	=50
!	!	!	!	!	!	!	!	!	!LO:TX:t=P:problem:mixed beam	!
8GG/	.	8G/	.	8g/L	.	8b\L	2ryy	2ryy	8g\L	(8b\L
8r	.	8r	.	8B/	.	8g\	.	.	8gg\	8gg\
4r	.	4r	.	8c/	.	8a\	.	.	8ff#\	8aa\
.	.	.	.	8d/J	.	8b\J	.	.	8ffn\J	8bb\J)
!LO:LB:g=original	!	!	!	!	!	!	!	!	!	!
=51	=51	=51	=51	=51	=51	=51	=51	=51	=51	=51
8r	.	8c\L	.	8e/	.	8cc\	2ryy	2ryy	8ee\L	8ccc\L
8C/L	.	8c\	.	16cc\LL	.	16ee\LL	.	.	(16cc\L	16ee\L
.	.	.	.	16a\JJ	.	16cc\JJ	.	.	16a\JJ)	16cc\JJ
8D/	.	8d\	.	16a/LL	.	16cc\LL	.	.	(16a/LL	16cc\LL
.	.	.	.	16g/	.	16b\	.	.	16g/)	16b\
8D/J	.	8d\J	.	16g/	.	16b\	.	.	(16g/	16b\
.	.	.	.	16f#/JJ	.	16a\JJ	.	.	16f#/JJ)	16a\JJ
=52	=52	=52	=52	=52	=52	=52	=52	=52	=52	=52
8GG/	.	8G/	.	8g/	.	8g/	2ryy	2ryy	8g/	8g/
8r	.	8r	.	24bb\LL	.	24bb\LL	.	.	8r	8r
.	.	.	.	24gg\	.	24gg\	.	.	.	.
.	.	.	.	24dd\JJ	.	24dd\JJ	.	.	.	.
!	!	!	!	!LO:N:vis=4	!	!LO:N:vis=4	!	!	!	!
8GG/	.	8G/	.	8b\	.	8b\	.	.	4r	4r
*	*	*	*	*tuplet	*	*	*	*	*	*
8r	.	8r	.	24gg\LL	.	24gg\LL	.	.	.	.
.	.	.	.	24dd\	.	24dd\	.	.	.	.
.	.	.	.	24b\JJ	.	24b\JJ	.	.	.	.
*	*	*	*	*Xtuplet	*	*	*	*	*	*
!	!	!LO:LB:g=original	!	!	!	!	!	!	!	!
=53	=53	=53	=53	=53	=53	=53	=53	=53	=53	=53
!LO:TX:t=P:problem:mixed beam	!	!LO:TX:t=P:problem:mixed beam	!	!	!	!	!	!	!LO:TX:a:t=2	!
8GG/L	.	8G\L	.	8g/	.	8g/	2ryy	2ryy	2r	2r
8G/	.	8g\	.	24g/LL	.	24g/LL	.	.	.	.
.	.	.	.	24b/	.	24b/	.	.	.	.
.	.	.	.	24g/JJ	.	24g/JJ	.	.	.	.
8D/	.	8d\	.	24d/LL	.	24d/LL	.	.	.	.
.	.	.	.	24g/	.	24g/	.	.	.	.
.	.	.	.	24d/JJ	.	24d/JJ	.	.	.	.
8BB/J	.	8B\J	.	24B/LL	.	24B/LL	.	.	.	.
.	.	.	.	24d/	.	24d/	.	.	.	.
.	.	.	.	24B/JJ	.	24B/JJ	.	.	.	.
!	!	!	!	!	!	!LO:LB:g=original	!	!	!	!
=54	=54	=54	=54	=54	=54	=54	=54	=54	=54	=54
!	!	!	!	!	!	!	!	!	!LO:TX:b:t=Presto	!
4GG/	.	4G/	.	4G/	.	4G/	2ryy	2ryy	2r	2r
4r	.	4r	.	4r	.	4r	.	.	.	.
==	==	==	==	==	==	==	==	==	==	==
*-	*-	*-	*-	*-	*-	*-	*-	*-	*-	*-
!!!system-decoration: [(s1,s2)][(s3,s4)][(s5,s6,s7,s8)]
!!!ENC: Tomasz Grochalski
!!!END: 2021-02-07
!!!ENC: Natalia Wrzos
!!!END: 2022-01-09
